X:122
T:No name
R:slide
Z:id:hn-slide-122
M:6/8
L:1/8
K:Amix
e2A ABA | e2f g2f | e2A ABA | Bcd Bcd |
e2A ABA | e2f g2f | efe dcB | A3 c2d :|
|: e2a agf | e2f g2f | e2A AGA | Bcd Bcd |
e2a agf | e2f g2f | efe dcB | A3 c2d :|

